X: 144
T:Tango
M:4/4
L:1/8
F:http://blackrosetheband.googlepages.com/ABCTUNES.ABC May 2009
K:C
"Gm"G g2 ^f g4|z g^fg ag=f_e|"D7"_e d2 ^c d4|d6 z2|
"G7"G f2e f4|zfef gf_ed|"Cm"f_e2d e4|e6 z c|
"C7"c e2 g g4|z4 z ceg|"Fm"_b_a2g ba2g|_a6 za|
"Cm"_ag2_e g3 g|"G7"gf2d B3 B|"Cm"d_e2d c4|z6 _B2|
"Bb"_B4 c d2 _e|f d2 _B B _A2 A|"Eb"_A G2 ^F G4|z6 G2|
"G7"G B2 cd d3 d|z4 B d2 f|"Cm"f _e2d fe2d|c4 z4|
"Fm"_A f2 e f4|z fef gf_ed|"Cm"G_e2de4| z _edegecG|
"D7b5"^F d2 ^c d3 F|"G7b9"=F d2 ^c d2 d_e|"Cm"d c2c c4|c4 z4||

